public/favicon.svg

<svg xmlns="http://www.w3.org/2000/svg" viewBox="0 0 1200 1200">
  <circle cx="600" cy="600" r="580" fill="white"/>
  <path fill="#333" d="m1080 600.84c-0.23438 127.31-51 249.28-141.19 339.14s-212.34 140.26-339.66 140.02c-127.31-0.23438-249.28-51-339.14-141.19-89.867-90.191-140.26-212.34-140.02-339.66 0.23438-127.31 51-249.28 141.19-339.14 90.191-89.867 212.34-140.26 339.66-140.02 127.22 0.51562 249.05 51.375 338.86 141.52 89.766 90.094 140.26 212.11 140.29 339.32zm-481.92 153.61c25.781 0 51.609 0.84375 77.297 0 8.3906-0.84375 15.984-5.2031 21-12 25.219-41.578 49.547-83.766 73.078-126.47v-0.046875c3.2344-6.9375 3.2344-14.953 0-21.938-24-42-49.922-84-75.938-124.69h-0.046875c-4.5469-6.2344-11.531-10.219-19.172-11.016-48.703-0.9375-97.5-0.9375-146.29 0-8.3906 0.84375-16.031 5.2031-21 12-26.016 40.688-51.469 82.125-76.453 124.18-3.1875 6.9375-3.1875 14.906 0 21.844 24 42.562 48.422 84.703 73.219 126.47 4.5 6.1875 11.344 10.219 18.938 11.062 25.219 1.3125 50.297 0.60938 75.375 0.60938zm-174.71-426.61c-40.688 3.9375-73.312 6.4688-105.61 10.781-8.5312 1.5-16.125 6.2344-21.234 13.219-24.609 38.625-48 78-71.156 117.7-3.375 6.3281-4.0781 13.734-1.9219 20.531 13.266 32.859 27.469 65.344 42.609 97.453 3.5625 5.7188 9.6562 9.4219 16.406 9.9375 31.922-2.1562 63.703-5.2969 96-9.7031 8.3438-1.5469 15.75-6.2812 20.672-13.219 26.156-41.062 51.422-82.594 75.844-124.69h-0.046875c3.7969-7.4062 4.4062-16.078 1.6875-24-12-28.312-24-56.156-37.781-83.391-4.0781-5.9062-9.375-10.875-15.469-14.625zm352.55 0c-5.5312 3.75-10.266 8.5312-13.922 14.156-13.547 27.375-26.391 55.219-37.922 84-2.6719 7.875-2.2031 16.453 1.3125 24 24 42 49.781 84 75.938 124.55h0.046875c5.5312 7.1719 13.594 11.953 22.547 13.453 30.844 4.4531 62.062 7.4531 93.234 9.375 7.3594-0.75 13.922-4.9219 17.625-11.297 14.625-30.609 28.312-61.781 41.062-93.375 2.6719-7.4062 2.25-15.562-1.0781-22.641-23.062-39.703-46.688-78.938-71.297-117.7v-0.046875c-4.9219-7.0312-12.328-11.906-20.766-13.688-33.094-4.4062-66.703-6.9375-106.78-10.922zm-13.781 562.08c-22.219-30.984-43.828-61.922-66.141-91.688-4.3125-4.125-10.078-6.375-16.078-6.2344-53.297-0.65625-106.83-0.65625-160.69 0-5.9531 0.23438-11.625 2.8125-15.703 7.2188-22.312 30-43.781 60-65.766 91.078 22.547 28.922 43.453 56.625 65.625 84 5.4375 5.7656 12.844 9.2344 20.766 9.7031 50.719 0.79688 101.53 0.79688 152.39 0 7.5-0.51562 14.484-3.9375 19.453-9.6094 22.219-27.328 43.547-55.547 66.141-84.469zm-483.98-593.76c9.9844 2.9062 20.156 4.9688 30.469 6.1406 13.922 0 27.703-2.3906 41.531-3.8438 29.625-3.375 61.688-0.70312 88.547-11.391 46.688-19.828 91.781-43.172 134.9-69.844 7.4531-4.4531 7.0781-24 7.2188-37.312 0-4.0781-9.6094-9.2344-15.703-12-22.453-10.219-44.766-4.0781-67.219 1.3125h-0.046876c-84 20.016-160.36 64.125-219.71 126.94zm643.45 0c-63.047-67.172-145.69-112.78-236.16-130.22-16.969-1.9219-34.172-1.125-50.906 2.2969-5.7656 0.84375-15.375 7.7812-15.375 12 0 12.844 0 32.766 7.4531 37.219 43.547 25.688 89.297 48 134.39 71.062l0.046875-0.046875c3.2344 1.2656 6.7031 1.9219 10.172 2.0625 40.078 4.0781 80.156 8.5312 120 12 10.359-0.9375 20.578-3.2344 30.375-6.8438zm-747.71 192c-24 66.609-20.766 167.06 4.2188 248.86l-0.046876 0.046875c7.6406 25.125 23.109 47.156 44.156 62.859 24-12 24-12 23.391-36.938-1.7812-42.984-3.2344-85.594-5.625-127.82-0.23438-8.2031-1.9219-16.359-4.9219-24-14.719-35.109-30-70.078-45.844-104.86-4.3125-6.9375-9.4688-13.312-15.375-18.984zm804.61 310.78c59.156-48.703 87.375-226.22 46.781-308.53-4.3125 3.8438-9.9375 6.4688-12 10.547-21.141 56.625-60 107.16-56.062 172.31v0.046876c1.1719 29.953-0.09375 59.906-3.8438 89.625-1.5469 18.375 4.0781 29.906 25.078 35.203zm-246.52 223.69c77.578-23.672 146.86-68.859 199.78-130.31 10.594-14.297 18.984-30.047 24.984-46.781 1.6406-5.9062 0.14063-12.234-3.9844-16.828-8.1562-3.9375-20.766-9-26.859-5.3906-75 43.828-149.16 88.688-195.84 166.55-7.4531 12.281-10.078 20.438 1.9219 32.766zm-258 1.9219c0-12 3.1406-21.703 0-27.938-47.062-81.234-122.76-130.08-201.71-174.47-5.3906-3.1406-17.766 2.7656-24.938 7.4531l-0.046874-0.046875c-3.7969 4.8281-4.9219 11.203-3.0938 17.062 4.6406 15.141 11.766 29.438 21 42.328 55.219 64.219 127.64 111.28 208.78 135.61z"/>
</svg>

<svg width="1200" height="1200" viewBox="0 0 1200 1200" fill="none" xmlns="http://www.w3.org/2000/svg">
<path d="M600 1127C891.054 1127 1127 891.054 1127 600C1127 308.946 891.054 73 600 73C308.946 73 73 308.946 73 600C73 891.054 308.946 1127 600 1127Z" fill="white"/>
<path d="M1080 600.84C1079.77 728.15 1029 850.12 938.81 939.98C848.62 1029.84 726.47 1080.24 599.15 1080C471.84 1079.77 349.87 1029 260.01 938.81C170.143 848.619 119.75 726.47 119.99 599.15C120.224 471.84 170.99 349.87 261.18 260.01C351.371 170.143 473.52 119.75 600.84 119.99C728.06 120.506 849.89 171.365 939.7 261.51C1029.47 351.604 1079.96 473.62 1079.99 600.83L1080 600.84ZM598.08 754.45C623.861 754.45 649.689 755.294 675.377 754.45C683.768 753.606 691.361 749.247 696.377 742.45C721.596 700.872 745.924 658.684 769.455 615.98V615.933C772.69 608.996 772.69 600.98 769.455 593.995C745.455 551.995 719.533 509.995 693.517 469.305H693.47C688.923 463.071 681.939 459.086 674.298 458.289C625.595 457.352 576.798 457.352 528.008 458.289C519.618 459.133 511.977 463.492 507.008 470.289C480.992 510.977 455.539 552.414 430.555 594.469C427.368 601.407 427.368 609.375 430.555 616.313C454.555 658.875 478.977 701.016 503.774 742.783C508.274 748.971 515.118 753.002 522.712 753.845C547.931 755.158 573.009 754.455 598.087 754.455L598.08 754.45ZM423.37 327.84C382.682 331.778 350.058 334.309 317.76 338.621C309.229 340.121 301.635 344.856 296.526 351.84C271.917 390.465 248.526 429.84 225.37 469.54C221.995 475.868 221.292 483.274 223.448 490.071C236.714 522.93 250.917 555.415 266.057 587.524C269.62 593.243 275.713 596.946 282.463 597.462C314.385 595.305 346.166 592.165 378.463 587.759C386.807 586.212 394.213 581.477 399.135 574.54C425.291 533.478 450.557 491.946 474.979 449.85H474.932C478.729 442.443 479.339 433.772 476.62 425.85C464.62 397.538 452.62 369.694 438.839 342.459C434.761 336.552 429.464 331.584 423.37 327.834L423.37 327.84ZM775.92 327.84C770.389 331.59 765.654 336.371 761.998 341.996C748.451 369.371 735.607 397.215 724.076 425.996C721.404 433.871 721.873 442.449 725.389 449.996C749.389 491.996 775.17 533.996 801.327 574.546H801.373C806.905 581.718 814.967 586.499 823.92 587.999C854.764 592.452 885.982 595.452 917.154 597.374C924.514 596.624 931.076 592.452 934.779 586.077C949.404 555.468 963.091 524.296 975.841 492.702C978.513 485.296 978.091 477.14 974.763 470.061C951.701 430.358 928.075 391.123 903.466 352.361V352.314C898.544 345.283 891.138 340.408 882.7 338.626C849.606 334.22 815.997 331.689 775.92 327.704L775.92 327.84ZM762.139 889.92C739.92 858.936 718.311 827.998 695.998 798.232C691.686 794.107 685.92 791.857 679.92 791.998C626.623 791.341 573.09 791.341 519.23 791.998C513.277 792.232 507.605 794.81 503.527 799.216C481.215 829.216 459.746 859.216 437.761 890.294C460.308 919.216 481.214 946.919 503.386 974.294C508.824 980.06 516.23 983.529 524.152 983.998C574.871 984.794 625.682 984.794 676.542 983.998C684.042 983.482 691.026 980.06 695.995 974.388C718.214 947.06 739.542 918.841 762.136 889.919L762.139 889.92ZM278.159 296.16C288.144 299.066 298.315 301.129 308.628 302.301C322.55 302.301 336.331 299.91 350.159 298.457C379.784 295.082 411.847 297.754 438.706 287.066C485.394 267.238 530.487 243.894 573.606 217.222C581.059 212.769 580.684 193.222 580.825 179.91C580.825 175.832 571.216 170.676 565.122 167.91C542.669 157.691 520.356 163.832 497.903 169.222H497.856C413.856 189.238 337.496 233.347 278.146 296.162L278.159 296.16ZM921.609 296.16C858.562 228.988 775.919 183.38 685.449 165.94C668.48 164.018 651.277 164.815 634.543 168.237C628.778 169.081 619.168 176.018 619.168 180.237C619.168 193.081 619.168 213.003 626.621 217.456C670.168 243.144 715.918 265.456 761.011 288.518L761.058 288.471C764.293 289.737 767.761 290.393 771.23 290.534C811.308 294.612 851.386 299.065 891.23 302.534C901.589 301.596 911.808 299.299 921.605 295.69L921.609 296.16ZM173.899 488.16C149.899 554.769 153.133 655.22 178.118 737.02L178.071 737.067C185.712 762.192 201.18 784.223 222.227 799.926C246.227 787.926 246.227 787.926 245.618 762.988C243.837 720.004 242.384 677.394 239.993 635.168C239.759 626.965 238.071 618.809 235.071 611.168C220.352 576.059 205.071 541.09 189.227 506.308C184.915 499.37 179.758 492.996 173.852 487.324L173.899 488.16ZM978.509 798.94C1037.67 750.237 1065.88 572.72 1025.29 490.41C1020.98 494.254 1015.35 496.879 1013.29 500.957C992.149 557.582 953.29 608.117 957.228 673.267V673.314C958.4 703.267 957.134 733.22 953.384 762.939C951.837 781.314 957.462 792.845 978.462 798.142L978.509 798.94ZM731.989 1022.63C809.567 998.958 878.849 953.771 931.769 892.32C942.363 878.023 950.753 862.273 956.753 845.539C958.394 839.633 956.894 833.305 952.769 828.711C944.613 824.774 932.003 819.711 925.91 823.32C850.91 867.148 776.75 912.009 730.07 989.871C722.617 1002.15 719.992 1010.31 731.992 1022.64L731.989 1022.63ZM473.989 1024.55C473.989 1012.55 477.13 1002.85 473.989 996.614C426.927 915.38 351.229 866.534 272.279 822.144C266.888 819.003 254.513 824.91 247.341 829.597L247.294 829.55C243.497 834.378 242.372 840.753 244.2 846.612C248.841 861.753 255.966 876.05 265.2 888.94C320.419 953.159 392.84 1000.22 473.98 1024.55L473.989 1024.55Z" fill="#16213E"/>
</svg>
